packages/icons/src/car-slash-fill.svg

<svg width="24" height="24" viewBox="0 0 24 24" fill="none" xmlns="http://www.w3.org/2000/svg">
<path fill-rule="evenodd" clip-rule="evenodd" d="M16.7928 18.9995L20.6177 22.2593L21.9581 20.7749L2.04496 3.08472L0.70459 4.5691L4.53509 7.93096L4.46153 8.21296L4.42238 8.33195L4.38679 8.4071C3.65444 8.29425 2.92398 8.16503 2.19594 8.01942L1.80371 9.98058C2.23036 10.0659 2.65781 10.1458 3.08597 10.2203L2.988 10.3603C2.34454 11.3379 1.99983 12.4844 1.99983 13.659V21H4.99071C4.99143 19.8956 5.88678 19.0005 6.99117 19L16.7928 18.9995ZM8.99983 13H5.99983V15H8.99983V13Z" fill="black"/>
<path d="M21.9998 13.7191V18.3136L17.9998 14.7017V13H16.1153L11.6845 8.99905C13.6259 9.01125 15.5677 8.90556 17.4998 8.68199L17.0401 6.76463C16.9416 6.35313 16.6028 6.05355 16.1989 6.00647L16.0872 6H8.36326L6.51251 4.32881C6.92531 4.11753 7.39086 4 7.87835 4H16.1805C17.5625 4 18.7657 4.94408 19.0944 6.28639L19.6129 8.4071C20.3452 8.29425 21.0757 8.16503 21.8037 8.01942L22.1959 9.98058C21.7567 10.0684 21.3167 10.1505 20.8759 10.2269C21.6066 11.2431 21.9998 12.4645 21.9998 13.7191Z" fill="black"/>
</svg>

<svg xmlns="http://www.w3.org/2000/svg" width="24" height="24" fill="none" viewBox="0 0 24 24">
  <path fill="#000" fill-rule="evenodd" d="m16.793 19 3.825 3.26 1.34-1.485L2.045 3.085.705 4.569l3.83 3.362-.073.282-.04.119-.035.075a49.992 49.992 0 0 1-2.191-.388l-.392 1.962c.426.085.854.165 1.282.24l-.098.14A6 6 0 0 0 2 13.658V21h2.99c.001-1.104.897-2 2.001-2h9.802ZM9 13H6v2h3v-2Z" clip-rule="evenodd"/>
  <path fill="#000" d="M22 13.72v4.594l-4-3.612V13h-1.885l-4.43-4a47.966 47.966 0 0 0 5.815-.318l-.46-1.917a.989.989 0 0 0-.841-.759L16.087 6H8.363l-1.85-1.671A2.993 2.993 0 0 1 7.878 4h8.302a3 3 0 0 1 2.914 2.286l.519 2.121a49.993 49.993 0 0 0 2.19-.388l.393 1.962c-.44.087-.88.17-1.32.246A5.981 5.981 0 0 1 22 13.719Z"/>
</svg>
